X: 1
T: Ciara And Dave's Wedding
M: 4/4
L: 1/8
R: hornpipe
K: Dmaj
(3DEF|GBdB=cdeg|fd =cA DEFD|GBdB =cdeg|fdef ~g3f|
~g3b afdf|e=ceg dBGF|GBdB =cdeg|fd=c AG2:|
|:fg|adab ~g3d|eggf ~d3g|a=c'ba gbag|ed=ced2(3efg|
adab ~g3b|=c'bag e2de|gged gf=ce|df=ce d2:|
